X:1
T:Quam pulchra es
T:Quam pulchra es
T:La Fagie
T:Source : Trium vocum cantiones---Nürnberg---J.Petreius---1541. Editor : André Vierendeels (24/05/16).
T:Notes : Original clefs : C1, C3, F3 Editorial accidentals above the staff Original note values have been halved Square bracket indicates ligature 
T:©
T:©
T:©
T:©
T:©
T:©
T:©
T:©
T:©
T:©
T:©
C:La Fagie
Z:©
%%score [ 1 2 3 ]
L:1/8
Q:1/4=94
M:2/2
K:C
V:1 treble nm="Alto" snm="A"
V:2 treble-8 nm="Tenor" snm="T"
V:3 bass nm="Bass" snm="B"
V:1
 z8 | z8 | z8 | z8 | z8 | E8 | B4 B4 | c2 A2 c3 B/A/ | G4 z2 G2 | A2 F2 A3 G/F/ | E4 z2 E2 | %11
w: |||||Quam|pul- chra|es, _ _ _ _|_ a-|mi- ca me- * *|a, quam|
 F2 D2 F3 E/D/ | C3 D EF E2- | E2 DC B,A, B,2 | z2 A,3 B,CD | EFGA B2 c2- | c2 BA G4 | A4 E4 | %18
w: pul- chra es _ _|_ et de- * co-|* * * * * ra,|quam _ _ _|_ _ _ _ _ pul-||chrae sunt|
 z4 G4 | E2 G4 FE | D4 G4 | E8- | E8 | z8 | G8 | A4 G2 A2- | A2 GF G2 A2 | E2 G2 F4 | E4 z4 | %29
w: ge-|nae tu- * *||ae,|_||quam|pul- chrae sunt|_ _ _ _ mam-|mae _ tu-|ae,|
 z2 G2 A2 B2 | c3 B G2 A2- | AG E2 F2 G2 | C2 c2 B2 G2 | A2 c3 BAG | A4 G4 | A3 B c2 B2- | %36
w: pul- chri- o-|||ra u- be- ra|tu- a _ _ _|vi- no,|col- * * lum|
 B2 A4 G2 | A4 z4 | z8 | z4 z2 G2 | A2 B2 G2 c2- | c2 B4 A2 | B8- | B8- | B8 | z2 G2 E2 G2- | %46
w: _ tu- *|um||sic-|ut mo- ni- li-||a,|_||o- cu- li|
 G2 FE D2 G2 | C4 z2 C2- | CDEF G2 A2 | EFGA B2 c2 | B2 G2 c4 | B2 A4 G2 | F2 E2 A4 | G2 F3 E E2- | %54
w: _ _ _ _ tu-|i co-|* * * * * lum-|ba- * * * * *|* rum, la-|bi- a tu-|* a di-|stil- lan- * *|
 E2 D2 C4 | B,4 z4 | z8 | z2 C2 CDEF | G2 A4 G2 | A2 c2 B3 A | Bc d4 cB | c2 d2 B2 A2 | z2 A4 GF | %63
w: * * ti-|a,||gut- tur _ _ _|_ tu- *|um su- a- *|* * vis- * *|* * si- mum,|su- a- *|
 G2 A2 F2 E2- | E2 A4 G2 | A4 z2 E2 | E4 F4 | E3 D E2 F2- | F2 E4 D2 | E4 z4 | z4 z2 G2 | %71
w: vis- * * *|* * si-|mum, ma-|us tu-|ae _ _ tor-|* na- ti-|les,|ven-|
 A2 B2 c3 B | A2 G2 F2 F2 | E4 z2 G2 | A4 B3 A | c2 B4 A2- | A2 G2 A4 | z4 z2 B2 | c3 B A2 G2 | %79
w: ter tu- us e-|bur- * * ne-|us, et|vox tu- *|a dul- *|* * cis|et|fa- ci- es de-|
 F4 E4 | z4 z2 E2 | F3 E D2 C2 | B,4 A,2 A2- | A2 G2 A2 c2- | cB cA B4- | B4 z4 | z2 A2 G2 E2 | %87
w: co- ra,|et|fa- ci- es _|_ _ tu-|* * a, de-|* * co- * ra,|_|O, a- mi-|
 G4 F2 D2 | F4 E2 C2 | E4 D4 | z2 d2 c2 A2 | c3 B GABG | A2 c4 B2 | A2 c4 BA | GFED C4 | %95
w: ca me- *||* a,|O, a- mi-|ca _ _ _ _ _|_ me- *||* * * * a|
 z2 G2 ABcA | B2 c2 B2 E2- | E2 D2 E3 F | G2 A4 G2 |[M:6/4] c6 BA G4 | A4 B4 c4 | A8 z4 | %102
w: a- pe- * * *|* * ri mi-||* * hi,|a- pe- * *|* ri mi-|hi,|
 A4 A4 G4 | c6 B2 A4 | G4 F8 | E6 DC B,4 | A,2 B,2 C2 D2 E2 F2 | G4 A8 |[M:2/2] B3 A/B/ c2 B2- | %109
w: qui- a a-|mo- re lan|gue- o,|a- * * *|mo- * * * * *|* re|lan- * * * *|
"^#" B2 A4 G2 | A8 |] %111
w: * gue- *|o.|
V:2
 z8 | z8 | A8 | e4 e4 | f2 d2 f3 e/d/ | c4 z2 c2 | g3 f ed e2- | edcB A2 e2- | e2 dc BA B2 | %9
w: ||Quam|pul- chra|es, _ _ _ _|_ a-|mi- * ca _ me-||* * * * * a|
 z2 A3 B c2- | c2 BA B2 c2 |"^b" d2 A2 B2 A2- | A2 GF E2 c2 | B2 A4 G2 | A4 z2 A2 | c4 B2 A2 | %16
w: quam _ pul-|* chra _ _ _|es de- co- *|||ra, quam|pul- chrae sunt|
 c2 d2 e3 d | cB c4 BA | GABc d2 e2- | e2 dc e2 d2 | B4 z2 B2 | c4 B2 c2- | c2 BA B2 c2- | %23
w: ge- * * *|||* * * nae tu-|ae, quam|pul- * *|* * * chrae sunt|
 cB/A/ B2 c2 d2 | G3 A B2 c2- | cBcA B2 A2 | c3 d e2 f2- | fe e4 d2 | e8 | e4 d4 | c4 B2 A2 | %31
w: _ _ _ _ mam- mae|tu- * * *||||ae,|mam- mae|tu- * *|
 c3 B A2 G2 | z2 c2 d2 e2 | f3 e c2 d2- | dc A2 B2 c2- | cBcd e3 d | d2 c2 B4 | z2 c2 d2 e2 | %38
w: * * * ae,|pul- chri- o-|ra _ _ u-|* be- ra tu- *||a vi- no,|col- lum tu-|
 c2 f4 e2- | e2 d2 e3 d | c2 d2 e3 d | ef g4 f2 | g4 z2 g2 | e2 g4 fe | d4 z2 g2 | e2 g4 fe | %46
w: um sic- ut|_ mo- ni- *||* * li- *|a, o-|cu- li tu- *|i, co-|lum- ba- * *|
 d2 e2 B4 | e8 | z4 z2 c2 | cdef g2 a2 | e3 d ef e2 | d2 c2 B4 | A4 c4 | B2 A4 G2 | F4 E4 | %55
w: |rum,|la-|bi- * * * * *|a _ _ _ _|_ _ tu-|a di-|stil- lan- *|ti- a,|
 z2 G3 ABc | d2 e4 d2 | e4 z4 | z8 | z4 z2 g2- | g2 fe f2 g2 | e2 d2 z2 d2- | d2 cB c2 d2 | %63
w: gut- tur _ _|_ tu- *|um||su-|* a- * vis- *|si- mum, su-|* * * a- vis-|
 B2 A3 Bcd | c2 d2 B4 | A8 | z8 | z8 | z2 G2 A2 B2 | c3 B A2 G2 | F2 F2 E4 | z4 z2 c2 | %72
w: |* * si-|mum,|||ven- ter tu-|us _ _ e-|bur- ne- us,|et|
 d2 e2 c2 d2 | e2 AB cd e2- | e2 d2 g3 f | ed e4 dc | B4 A2 c2 | BA A4 G2 | A4 z4 | A3 B cd e2 | %80
w: u- xor tu- a|dul- * * * * *|||||cis,|et _ _ _ _|
 A2 d2 d2 c2 | d4 z4 | z2 d2 c2 f2- | f2 ed f4 | e4 z2 e2 | d2 B2 d4 | c2 A2 c4 | B2 G2 B4 | %88
w: fa- ci- es tu-|a|de- co- *||ra, O,|a- mi- ca|me- * *||
 A4 z2 A2 | G2 E2 G4 | F2 D2 F4 | E4 z4 | z2 A2 e2 e2 | f4 e4 | z4 z2 A2 | e2 e2 f4 | e4 z4 | %97
w: a, O,|a- mi- ca|me- * *|a,|a- pe- ri|mi- hi,|a-|pe- ri mi-|hi,|
 z2 A2 B2 c2- | c2 BA B4 |[M:6/4] A8 z4 | d4 d4 c4 | f6 e2 d4 | c4 B8 | A6 B2 c2 d2 | e6 dc d4 | %105
w: a- pe- ri|_ _ _ mi-|hi,|qui- a a-|mo- re lan-|gue- o,|lan- * * *|* * * gue-|
 e12- | e8 z4 | e4 e4 d4 |[M:2/2] g3 f ed e2- | e2 dc B4 | A8 |] %111
w: o,|_|qui- a a-|mo- re lan- * *|* * * gue-|o.|
V:3
 A,,8 | E,4 E,4 | F,2 D,2 F,3 E,/D,/ | C,D,E,F, G,2 A,2 | D,4 D,2 A,2- | A,2 G,F, G,2 A,2 | %6
w: Quam|pul- chra|es _ _ _ _|_ _ _ _ _ a-|mi- ca me-||
 E,4 z4 | A,,8 | E,4 E,4 | F,2 D,2 F,3 E,/D,/ | C,D,E,F, G,2 A,2 | D,4 z4 | A,,8 | E,4 E,4 | %14
w: a,|quam|pul- chra|es et de- * *|* * * * * co-|ra,|quam|pul- chrae|
 F,2 D,2 F,3 E,/D,/ | C,D,E,F, G,2 A,2 | F,4 E,4 | z2 A,,3 B,,C,D, | E,F,G,A, B,2 C2- | %19
w: sunt ge- * * *|* * * * nae tu-|* ae|quam _ _ _|_ _ _ _ _ pul-|
 C2 B,A, G,4- | G,4 G,4 | A,4 G,2 A,2- | A,2 G,F, G,2 A,2 | E,2 G,2 F,4 | E,8 | z8 | z8 | %27
w: * chrae _ sunt|_ mam-|mae _ _|_ _ _ _ _|* * tu-|ae,|||
 z2 G,2 A,2 B,2 | C3 B, G,2 A,2- | A,G, E,2 F,2 G,2 | C,3 D, E,2 F,2- | F,E, C,2 D,2 E,2 | %32
w: pul- chri- o-|ra _ _ u-|* be- ra tu- *||* * * * a,|
 A,,2 A,2 G,3 F, | D,2 A,4 D,2 | F,4 E,4 | z8 | z2 C,2 D,2 E,2 | C,2 F,3 E, E,2- | %38
w: vi- * * *||* no,||col- lum tu-|um sic- * ut|
 E,2 D,2 E,2 G,2 | F,4 E,4 | A,2 G,2 C3 B, | A,2 G,2 D4 | G,8 | z2 G,2 E,2 G,2- | %44
w: _ mo- ni- *|||* * li-|a,|o- cu- li|
 G,2 F,E, D,2 G,2 | C,8 | G,8 | A,4 G,2 A,2- | A,2 G,F, E,2 F,2 | C,4 z4 | z2 C,2 C,D,E,F, | %51
w: _ _ _ _ tu-|i|co-|lum- ba- *||rum,|la- bi _ _ _|
 G,2 A,2 E,4 | z2 A,,3 B,,C,D, | E,2 F,2 C,4 | D,4 A,,4 | E,3 D, E,F, G,2- | G,2 F,E, F,2 G,2- | %57
w: a tu- a|stil- len- * *||ti- a|gut- tur _ _ _|_ _ _ _ _|
 G,E, A,3 B, C2- | C2 B,A, B,2 C2 | A,4 G,4 | z8 | z2 G,4 F,E, | F,G, A,4 D,2 | E,2 F,2 D,2 A,2- | %64
w: * * tu- * *||* um||su- a- *|* * vis- *||
 A,2 D,2 E,4 | z2 A,,3 B,,C,D, | E,F,G,A, D,E,F,G, | A,B, C3 B,A,G, | A,2 E,2 F,2 G,2 | %69
w: * si- mum,|ma- nus _ _|_ _ _ _ _ _ _ _|* * tu- * * *|* * * ae,|
 z2 C,2 D,2 E,2- | E,C, D,2 E,F,G,E, | F,2 G,2 C,4 | z2 G,2 A,2 B,2 | C3 B, A,2 G,2 | F,2 F,2 E,4 | %75
w: tor- na- ti-||* * les,|ven- ter tu-|us e- bur- *|* ne- us,|
 z4 z2 C,2 | D,2 E,2 F,3 E, | D,2 C,2 B,,4 | A,,3 B,, C,D, E,2- | E,2 D,2 E,2 C,2 | %80
w: et|vox tu- a _|_ dul- *|||
 F,2 F,2 E,2 E,2 | D,3 E, F,G, A,2- | A,2 G,2 A,2 F,2 |"^b" B,4 A,4 | z2 A,2 G,2 E,2 | %85
w: |||* cis|O, a- mi-|
 G,4 F,2 D,2 | F,4 E,2 C,2 | E,4 D,4 | z2 D,2 C,2 A,,2 | C,4 B,,2 G,,2 | _B,,4 A,,4 | %91
w: ca me- *||* a,|O, a- mi-|ca me- *|* a,|
 z2 A,,2 E,2 E,2 | F,4 E,4 | z4 z2 A,,2 | E,2 E,2 F,4 | E,4 z4 | z2 A,,2 E,2 E,2 | F,4 E,2 A,,2 | %98
w: a- pe- ri|mi- hi,|a-|pe- ri mi-|hi,|a- pe- ri|mi- * *|
 E,2 F,2 E,4 |[M:6/4] A,,2 B,,2 C,2 D,2 E,4 | F,4 G,4 A,4 | D,6 E,2 F,2 G,2 | A,4 D,4 E,4 | A,,12 | %104
w: * * hi,|a- pe- * * *|* * ri|mi- * * *||hi,|
 z12 | A,4 A,4 G,4 | C6 B,2 A,4 | G,4 F,8 |[M:2/2] E,8- | E,8 | A,,8 |] %111
w: |qui- a a-|mo- re lan-|* gue-|o.|_||

